svg/u1f640.svg

<svg viewBox="0 0 128 128" xmlns="http://www.w3.org/2000/svg">
  <defs/>
  <path d="M114.11,70.76 C112.31,44.78 94.44,26.3 64,26.3 C33.56,26.3 15.69,44.78 13.89,70.76 C12.84,85.9 18.94,98.77 30.98,106.97 C30.98,106.97 43.19,116.85 64,117.11 C84.81,116.85 97.02,106.97 97.02,106.97 C109.05,98.77 115.16,85.9 114.11,70.76 Z" fill="#FFC022"/>
  <path d="M54.12,45.02 C55.25,45.98 57.54,45.84 58.87,44.3 C60.48,42.43 62.16,36.13 61.11,26.39 C56.44,26.56 52.02,27.23 47.9,28.36 C51.23,33.82 52.03,43.24 54.12,45.02 Z" fill="#FF7043" opacity="0.47"/>
  <path d="M73.88,45.02 C72.75,45.98 70.46,45.84 69.13,44.3 C67.52,42.43 65.84,36.13 66.89,26.39 C71.56,26.56 75.98,27.23 80.1,28.36 C76.77,33.82 75.97,43.24 73.88,45.02 Z" fill="#FF7043" opacity="0.47"/>
  <path d="M16.38,60.19 C11.12,23.35 24.97,7.99 31.71,4.68 C33.84,3.64 36.07,3.77 37.81,5.28 C41,8.05 39.36,17.27 47.77,28.37" fill="#FFC022"/>
  <path d="M25.37,44.52 C24.24,45.86 23.08,44.69 23.01,42.94 C22.52,30.7 26.46,21.62 29.71,17.36 C30.84,15.88 33.19,16.4 33.57,18.23 C34.3,21.77 35.74,26.85 38.45,31.09 C39.01,31.96 38.78,33.12 37.92,33.69 C36.03,34.96 32.82,37.2 30.28,39.4 C28.52,40.91 26.77,42.85 25.37,44.52 Z" fill="#FFD1D1"/>
  <path d="M111.62,60.19 C116.88,23.35 103.03,7.99 96.29,4.68 C94.16,3.64 91.93,3.77 90.19,5.28 C87,8.05 88.64,17.27 80.23,28.37" fill="#FFC022"/>
  <path d="M102.63,44.52 C103.76,45.86 104.92,44.69 104.99,42.94 C105.48,30.7 101.54,21.62 98.29,17.36 C97.16,15.88 94.81,16.4 94.43,18.23 C93.7,21.77 92.26,26.85 89.55,31.09 C88.99,31.96 89.22,33.12 90.08,33.69 C91.97,34.96 95.18,37.2 97.72,39.4 C99.48,40.91 101.23,42.85 102.63,44.52 Z" fill="#FFD1D1"/>
  <path d="M55.96,68.97 C55.91,66.11 60.02,64.73 63.91,64.67 C67.8,64.61 71.98,65.87 72.03,68.73 C72.08,71.59 67.17,75.37 64.08,75.37 C61,75.37 56.01,71.83 55.96,68.97 Z"/>
  <path d="M86.82,68.76 C81.62,68.76 77.17,64.89 76.23,59.55 C75.72,56.63 76.33,53.7 77.96,51.29 C79.58,48.9 82,47.32 84.78,46.83 C85.37,46.73 85.96,46.68 86.55,46.68 C91.75,46.68 96.2,50.55 97.14,55.89 C97.65,58.81 97.04,61.74 95.41,64.15 C93.79,66.54 91.37,68.12 88.59,68.61 C88.01,68.71 87.42,68.76 86.82,68.76 L86.82,68.76 Z" fill="#FFFDE7"/>
  <path d="M86.56,48.18 C91.03,48.18 94.86,51.53 95.67,56.15 C96.11,58.68 95.58,61.22 94.17,63.31 C92.78,65.36 90.71,66.72 88.33,67.13 C87.83,67.22 87.32,67.26 86.82,67.26 C82.35,67.26 78.52,63.91 77.71,59.29 C77.27,56.76 77.8,54.22 79.21,52.13 C80.6,50.08 82.67,48.72 85.05,48.31 C85.55,48.23 86.06,48.18 86.56,48.18 M86.56,45.18 C85.89,45.18 85.21,45.24 84.53,45.36 C77.94,46.51 73.56,52.98 74.76,59.81 C75.83,65.93 81.01,70.26 86.82,70.26 C87.49,70.26 88.17,70.2 88.85,70.08 C95.44,68.93 99.82,62.46 98.62,55.63 C97.56,49.51 92.37,45.18 86.56,45.18 L86.56,45.18 Z" fill="#EF6C00"/>
  <path d="M40.62,68.76 C40.03,68.76 39.43,68.71 38.85,68.61 C36.07,68.12 33.64,66.54 32.03,64.15 C30.4,61.74 29.79,58.81 30.3,55.89 C31.23,50.55 35.69,46.68 40.89,46.68 C41.48,46.68 42.08,46.73 42.66,46.83 C48.43,47.84 52.26,53.54 51.21,59.55 C50.27,64.89 45.82,68.76 40.62,68.76 Z" fill="#FFFDE7"/>
  <path d="M40.88,48.18 L40.88,48.18 C41.38,48.18 41.89,48.22 42.39,48.31 C44.77,48.73 46.84,50.08 48.23,52.13 C49.64,54.21 50.17,56.75 49.73,59.29 C48.92,63.91 45.09,67.26 40.62,67.26 C40.12,67.26 39.61,67.22 39.11,67.13 C34.16,66.26 30.87,61.34 31.78,56.15 C32.58,51.53 36.41,48.18 40.88,48.18 M40.88,45.18 C35.07,45.18 29.89,49.51 28.82,55.63 C27.63,62.46 32,68.93 38.59,70.08 C39.27,70.2 39.95,70.26 40.62,70.26 C46.43,70.26 51.61,65.93 52.68,59.81 C53.87,52.98 49.5,46.51 42.91,45.36 C42.23,45.24 41.55,45.18 40.88,45.18 L40.88,45.18 Z" fill="#EF6C00"/>
  <path d="M65.98,80.55 L62.03,80.58 C62.03,83.4 60.81,85.44 58.8,87.58 C55.96,90.6 53.32,94.17 53.32,99.58 C53.32,107.54 58.11,112.17 64,112.17 C69.89,112.17 74.68,107.54 74.68,99.58 C74.68,94.16 72.07,90.74 69.18,87.57 C67.35,85.56 65.98,83.38 65.98,80.55 Z"/>
  <path d="M66,70.02 L66,89.84 Q66,91.84 64,91.84 Q62,91.84 62,89.84 L62,70.02 Q62,68.02 64,68.02 Q66,68.02 66,70.02 Z" fill="#000000"/>
  <path d="M108.892,81.73 L123.372,83.4 Q124.862,83.572 124.69,85.062 Q124.518,86.552 123.028,86.38 L108.548,84.71 Q107.058,84.538 107.23,83.048 Q107.402,81.558 108.892,81.73 Z" fill="#9E9E9E"/>
  <path d="M104.464,68.215 L118.544,53.705 Q119.066,53.167 119.596,53.159 Q120.126,53.151 120.665,53.674 Q121.741,54.718 120.696,55.795 L106.616,70.305 Q105.572,71.381 104.495,70.336 Q103.419,69.292 104.464,68.215 Z" fill="#9E9E9E"/>
  <path d="M107.499,73.964 L123.979,67.854 Q125.385,67.332 125.906,68.739 Q126.428,70.145 125.021,70.666 L108.541,76.776 Q107.135,77.298 106.614,75.891 Q106.092,74.485 107.499,73.964 Z" fill="#9E9E9E"/>
  <path d="M19.452,84.71 L4.972,86.38 Q4.227,86.466 3.811,86.136 Q3.396,85.807 3.31,85.062 Q3.138,83.572 4.628,83.4 L19.108,81.73 Q19.853,81.644 20.269,81.974 Q20.684,82.303 20.77,83.048 Q20.942,84.538 19.452,84.71 Z" fill="#9E9E9E"/>
  <path d="M21.384,70.305 L7.304,55.795 Q6.259,54.718 7.335,53.674 Q7.874,53.151 8.404,53.159 Q8.934,53.167 9.456,53.705 L23.536,68.215 Q24.059,68.754 24.051,69.284 Q24.043,69.814 23.505,70.336 Q22.428,71.381 21.384,70.305 Z" fill="#9E9E9E"/>
  <path d="M19.459,76.776 L2.979,70.666 Q1.572,70.145 2.094,68.739 Q2.354,68.035 2.836,67.814 Q3.318,67.593 4.021,67.854 L20.501,73.964 Q21.908,74.485 21.386,75.891 Q21.126,76.595 20.644,76.816 Q20.162,77.037 19.459,76.776 Z" fill="#9E9E9E"/>
  <path d="M105.06,87.29 C104.98,88.37 104.82,89.44 104.6,90.49 C102.97,98.15 101.64,104.37 104.13,111.98 C105.49,116.14 107.32,120.29 109.66,124 L84.37,124 C84.37,124 78.19,97.33 76.81,90.34 C74.43,78.25 90.97,66.96 100.85,75.4 C104.4,78.44 105.39,82.9 105.06,87.29 Z" fill="#FF9B17"/>
  <path d="M81.11,91.67 C78.75,80.51 89.45,72.88 100.12,76.55 C100.96,76.84 102.26,77.46 102.43,77.38 C102.78,77.22 101.72,76.14 100.85,75.41 C90.97,66.96 74.42,78.25 76.81,90.35 C78.19,97.33 84.37,124.01 84.37,124.01 L88.75,124.01 C87.48,118.76 82.39,97.74 81.11,91.67 Z" fill="#EF6C00"/>
  <path d="M22.94,87.29 C23.02,88.37 23.18,89.44 23.4,90.49 C25.03,98.15 26.36,104.37 23.87,111.98 C22.51,116.14 20.68,120.29 18.34,124 L43.63,124 C43.63,124 49.81,97.33 51.19,90.34 C53.57,78.25 37.03,66.96 27.15,75.4 C23.6,78.44 22.61,82.9 22.94,87.29 Z" fill="#FF9B17"/>
  <path d="M46.89,91.67 C49.25,80.51 38.55,72.88 27.88,76.55 C27.04,76.84 25.74,77.46 25.57,77.38 C25.22,77.22 26.28,76.14 27.15,75.41 C37.03,66.96 53.58,78.25 51.19,90.35 C49.82,97.33 43.63,124 43.63,124 L39.25,124 C40.52,118.76 45.61,97.74 46.89,91.67 Z" fill="#EF6C00"/>
</svg>

<svg viewBox="0 0 128 128" xmlns="http://www.w3.org/2000/svg">
  <g>
    <path d="M114.11,70.76C112.31,44.78,94.44,26.3,64,26.3S15.69,44.78,13.89,70.76 c-1.05,15.14,5.05,28.01,17.09,36.21c0,0,12.21,9.88,33.02,10.14c20.81-0.26,33.02-10.14,33.02-10.14 C109.05,98.77,115.16,85.9,114.11,70.76z" fill="#FFC022"/>
    <path d="M54.12,45.02c1.13,0.96,3.42,0.82,4.75-0.72c1.61-1.87,3.29-8.17,2.24-17.91 c-4.67,0.17-9.09,0.84-13.21,1.97C51.23,33.82,52.03,43.24,54.12,45.02z" fill="#FF7043" opacity="0.47"/>
    <path d="M73.88,45.02c-1.13,0.96-3.42,0.82-4.75-0.72c-1.61-1.87-3.29-8.17-2.24-17.91 c4.67,0.17,9.09,0.84,13.21,1.97C76.77,33.82,75.97,43.24,73.88,45.02z" fill="#FF7043" opacity="0.47"/>
    <g>
      <g>
        <path d="M16.38,60.19c-5.26-36.84,8.59-52.2,15.33-55.51c2.13-1.04,4.36-0.91,6.1,0.6 c3.19,2.77,1.55,11.99,9.96,23.09" fill="#FFC022"/>
        <path d="M25.37,44.52c-1.13,1.34-2.29,0.17-2.36-1.58c-0.49-12.24,3.45-21.32,6.7-25.58 c1.13-1.48,3.48-0.96,3.86,0.87c0.73,3.54,2.17,8.62,4.88,12.86c0.56,0.87,0.33,2.03-0.53,2.6c-1.89,1.27-5.1,3.51-7.64,5.71 C28.52,40.91,26.77,42.85,25.37,44.52z" fill="#FFD1D1"/>
      </g>
      <g>
        <path d="M111.62,60.19c5.26-36.84-8.59-52.2-15.33-55.51c-2.13-1.04-4.36-0.91-6.1,0.6 c-3.19,2.77-1.55,11.99-9.96,23.09" fill="#FFC022"/>
        <path d="M102.63,44.52c1.13,1.34,2.29,0.17,2.36-1.58c0.49-12.24-3.45-21.32-6.7-25.58 c-1.13-1.48-3.48-0.96-3.86,0.87c-0.73,3.54-2.17,8.62-4.88,12.86c-0.56,0.87-0.33,2.03,0.53,2.6c1.89,1.27,5.1,3.51,7.64,5.71 C99.48,40.91,101.23,42.85,102.63,44.52z" fill="#FFD1D1"/>
      </g>
    </g>
    <path d="M55.96,68.97c-0.05-2.86,4.06-4.24,7.95-4.3s8.07,1.2,8.12,4.06c0.05,2.86-4.86,6.64-7.95,6.64 C61,75.37,56.01,71.83,55.96,68.97z"/>
    <g>
      <path d="M86.82,68.76c-5.2,0-9.65-3.87-10.59-9.21c-0.51-2.92,0.1-5.85,1.73-8.26 c1.62-2.39,4.04-3.97,6.82-4.46c0.59-0.1,1.18-0.15,1.77-0.15c5.2,0,9.65,3.87,10.59,9.21c0.51,2.92-0.1,5.85-1.73,8.26 c-1.62,2.39-4.04,3.97-6.82,4.46C88.01,68.71,87.42,68.76,86.82,68.76L86.82,68.76z" fill="#FFFDE7"/>
      <path d="M86.56,48.18c4.47,0,8.3,3.35,9.11,7.97c0.44,2.53-0.09,5.07-1.5,7.16 c-1.39,2.05-3.46,3.41-5.84,3.82c-0.5,0.09-1.01,0.13-1.51,0.13c-4.47,0-8.3-3.35-9.11-7.97c-0.44-2.53,0.09-5.07,1.5-7.16 c1.39-2.05,3.46-3.41,5.84-3.82C85.55,48.23,86.06,48.18,86.56,48.18 M86.56,45.18c-0.67,0-1.35,0.06-2.03,0.18 c-6.59,1.15-10.97,7.62-9.77,14.45c1.07,6.12,6.25,10.45,12.06,10.45c0.67,0,1.35-0.06,2.03-0.18 c6.59-1.15,10.97-7.62,9.77-14.45C97.56,49.51,92.37,45.18,86.56,45.18L86.56,45.18z" fill="#EF6C00"/>
    </g>
    <g>
      <path d="M40.62,68.76c-0.59,0-1.19-0.05-1.77-0.15c-2.78-0.49-5.21-2.07-6.82-4.46 c-1.63-2.41-2.24-5.34-1.73-8.26c0.93-5.34,5.39-9.21,10.59-9.21c0.59,0,1.19,0.05,1.77,0.15c5.77,1.01,9.6,6.71,8.55,12.72 C50.27,64.89,45.82,68.76,40.62,68.76z" fill="#FFFDE7"/>
      <path d="M40.88,48.18L40.88,48.18c0.5,0,1.01,0.04,1.51,0.13c2.38,0.42,4.45,1.77,5.84,3.82 c1.41,2.08,1.94,4.62,1.5,7.16c-0.81,4.62-4.64,7.97-9.11,7.97c-0.5,0-1.01-0.04-1.51-0.13c-4.95-0.87-8.24-5.79-7.33-10.98 C32.58,51.53,36.41,48.18,40.88,48.18 M40.88,45.18c-5.81,0-10.99,4.33-12.06,10.45c-1.19,6.83,3.18,13.3,9.77,14.45 c0.68,0.12,1.36,0.18,2.03,0.18c5.81,0,10.99-4.33,12.06-10.45c1.19-6.83-3.18-13.3-9.77-14.45 C42.23,45.24,41.55,45.18,40.88,45.18L40.88,45.18z" fill="#EF6C00"/>
    </g>
    <path d="M65.98,80.55l-3.95,0.03c0,2.82-1.22,4.86-3.23,7c-2.84,3.02-5.48,6.59-5.48,12c0,7.96,4.79,12.59,10.68,12.59 s10.68-4.63,10.68-12.59c0-5.42-2.61-8.84-5.5-12.01C67.35,85.56,65.98,83.38,65.98,80.55z"/>
    <line fill="none" stroke="#000000" stroke-linecap="round" stroke-miterlimit="10" stroke-width="4" x1="64" x2="64" y1="70.02" y2="89.84"/>
    <g>
      <line fill="none" stroke="#9E9E9E" stroke-linecap="round" stroke-miterlimit="10" stroke-width="3" x1="108.72" x2="123.2" y1="83.22" y2="84.89"/>
      <line fill="none" stroke="#9E9E9E" stroke-linecap="round" stroke-miterlimit="10" stroke-width="3" x1="105.54" x2="119.62" y1="69.26" y2="54.75"/>
      <line fill="none" stroke="#9E9E9E" stroke-linecap="round" stroke-miterlimit="10" stroke-width="3" x1="108.02" x2="124.5" y1="75.37" y2="69.26"/>
      <line fill="none" stroke="#9E9E9E" stroke-linecap="round" stroke-miterlimit="10" stroke-width="3" x1="19.28" x2="4.8" y1="83.22" y2="84.89"/>
      <line fill="none" stroke="#9E9E9E" stroke-linecap="round" stroke-miterlimit="10" stroke-width="3" x1="22.46" x2="8.38" y1="69.26" y2="54.75"/>
      <line fill="none" stroke="#9E9E9E" stroke-linecap="round" stroke-miterlimit="10" stroke-width="3" x1="19.98" x2="3.5" y1="75.37" y2="69.26"/>
    </g>
    <g>
      <g>
        <path d="M105.06,87.29c-0.08,1.08-0.24,2.15-0.46,3.2c-1.63,7.66-2.96,13.88-0.47,21.49 c1.36,4.16,3.19,8.31,5.53,12.02l-25.29,0c0,0-6.18-26.67-7.56-33.66c-2.38-12.09,14.16-23.38,24.04-14.94 C104.4,78.44,105.39,82.9,105.06,87.29z" fill="#FF9B17"/>
        <path d="M81.11,91.67c-2.36-11.16,8.34-18.79,19.01-15.12c0.84,0.29,2.14,0.91,2.31,0.83 c0.35-0.16-0.71-1.24-1.58-1.97c-9.88-8.45-26.43,2.84-24.04,14.94c1.38,6.98,7.56,33.66,7.56,33.66l4.38,0 C87.48,118.76,82.39,97.74,81.11,91.67z" fill="#EF6C00"/>
      </g>
      <g>
        <path d="M22.94,87.29c0.08,1.08,0.24,2.15,0.46,3.2c1.63,7.66,2.96,13.88,0.47,21.49 c-1.36,4.16-3.19,8.31-5.53,12.02l25.29,0c0,0,6.18-26.67,7.56-33.66c2.38-12.09-14.16-23.38-24.04-14.94 C23.6,78.44,22.61,82.9,22.94,87.29z" fill="#FF9B17"/>
        <path d="M46.89,91.67c2.36-11.16-8.34-18.79-19.01-15.12c-0.84,0.29-2.14,0.91-2.31,0.83 c-0.35-0.16,0.71-1.24,1.58-1.97c9.88-8.45,26.43,2.84,24.04,14.94C49.82,97.33,43.63,124,43.63,124l-4.38,0 C40.52,118.76,45.61,97.74,46.89,91.67z" fill="#EF6C00"/>
      </g>
    </g>
  </g>
</svg>
